!!!SOCIAL_FUNCTION:	songs for success in ball game
!!!PDT:	1956
!!!OTL: No_218_Ball_Game_Song_(a).krn
!!!LANG: Non-Tone
!!!LING_GROUP: Muskogean
!!!REG: Florida
**kern
*staff1
=1-
=
*clefF4
*k[b-]
*M2/4
16F\LK
8.c\J
16c\LL
16A\J
8G\J
=2
16B-\LK
8.G\J
8F\
8r
=3
16F\LL
16F\J
8D\J
8F\L
8D\J
=4
16F\LL
16F\J
8F\J
8F\L
8G\J
=5||
*M3/8
8A\L
8G\
16.G\L
32F\JJk
=6||
*M2/4
4G\
16F\
16r
16.G\LL
32A\JJk
=7
4G\
8F\
8r
=8
16F\LL
16F\J
8D\J
8F\L
8D\J
=9:|!
8c\
8r
4B-\
==
*-
